X: 011
T: Lady Doll Sinclair's Reel
R: reel
B: Robert Bremner "A Collection of Scots Reels or Country Dances" p.1 #1
S: "http://imslp.org/wiki/A_Collection_of_Scots_Reels_or_Country_Dances_(Bremner,_Robert)"
Z: 2013 John Chambers <jc:trillian.mit.edu>
N: The :S: symbol is a "segno", but there's only one, so it doesn't make sense.
M: C|
L: 1/16
K: Amix
% - - - - - - - - - - - - - - - - - - - - - - - - -
%V: 1
B2 |\
AAA2 c2A2 d2B2c2A2 | B2g2-g2d2 B2G2G2B2 |\
AAA2 c2A2 d2B2c2A2 | B2a2-a2e2 c2A2A2 :|
|: g2 "^:S:"| (agfe) c2a2 e2a2c2a2 | B2g2-g2d2 B2G2G2g2 |\
[1 (agfe) c2a2 e2a2c2a2 | B2a2-a2e2 c2A2A2g2 :|\
[2 (agf2) (gfe2) (fed2) (edc2) | B2a2-a2e2 c2A2A2 |]
% - - - - - - - - - - - - - - - - - - - - - - - - -
V: 2 clef=bass middle=d
z2 |\
a4 a4 a4 a4 | g4 g4 g4 g4 |\
a4 a4 a4 a4 | e4 e4 A4 A2 :|\
|: z2 | a4
a4 a4 a4 | g4 g4 g4 g4 |\
[1 a4 a4 a4 a4 | e4 e4 A4 A4 :|\
[2 a4 a4 a4 a4 | e4 e4 A4 A2 |]
% - - - - - - - - - - - - - - - - - - - - - - - - -

%%sep 1 1 500
%%sep 1 1 500
